src/assets/duotone/Flash1.svg

<svg width="24" height="24" viewBox="0 0 24 24"  xmlns="http://www.w3.org/2000/svg">
<path d="M9.31994 13.28H12.4099V20.48C12.4099 21.54 13.7299 22.04 14.4299 21.24L21.9999 12.64C22.6599 11.89 22.1299 10.72 21.1299 10.72H18.0399V3.51997C18.0399 2.45997 16.7199 1.95997 16.0199 2.75997L8.44994 11.36C7.79994 12.11 8.32994 13.28 9.31994 13.28Z" />
<path opacity="0.4" d="M8.5 4.75H1.5C1.09 4.75 0.75 4.41 0.75 4C0.75 3.59 1.09 3.25 1.5 3.25H8.5C8.91 3.25 9.25 3.59 9.25 4C9.25 4.41 8.91 4.75 8.5 4.75Z" />
<path opacity="0.4" d="M7.5 20.75H1.5C1.09 20.75 0.75 20.41 0.75 20C0.75 19.59 1.09 19.25 1.5 19.25H7.5C7.91 19.25 8.25 19.59 8.25 20C8.25 20.41 7.91 20.75 7.5 20.75Z" />
<path opacity="0.4" d="M4.5 12.75H1.5C1.09 12.75 0.75 12.41 0.75 12C0.75 11.59 1.09 11.25 1.5 11.25H4.5C4.91 11.25 5.25 11.59 5.25 12C5.25 12.41 4.91 12.75 4.5 12.75Z" />
</svg>

<?xml version="1.0" encoding="UTF-8"?>
<svg width="24" height="24" viewBox="0 0 24 24" xmlns="http://www.w3.org/2000/svg">
 <path d="m9.3199 13.28h3.09v7.2c0 1.06 1.32 1.56 2.02 0.76l7.57-8.6c0.66-0.75 0.13-1.92-0.87-1.92h-3.09v-7.2c0-1.06-1.32-1.56-2.02-0.76l-7.57 8.6c-0.65 0.75-0.12 1.92 0.87 1.92z"/>
 <path d="m8.5 4.75h-7c-0.41 0-0.75-0.34-0.75-0.75s0.34-0.75 0.75-0.75h7c0.41 0 0.75 0.34 0.75 0.75s-0.34 0.75-0.75 0.75z" opacity=".4"/>
 <path d="m7.5 20.75h-6c-0.41 0-0.75-0.34-0.75-0.75s0.34-0.75 0.75-0.75h6c0.41 0 0.75 0.34 0.75 0.75s-0.34 0.75-0.75 0.75z" opacity=".4"/>
 <path d="m4.5 12.75h-3c-0.41 0-0.75-0.34-0.75-0.75s0.34-0.75 0.75-0.75h3c0.41 0 0.75 0.34 0.75 0.75s-0.34 0.75-0.75 0.75z" opacity=".4"/>
</svg>
